X:1
T:Another Jig Will Do
Z: id:dc-slipjig-1
M:9/8
L:1/8
K:D Major
ABA A2G F2G|ABA AGF G3|ABA A2G F2G|A2d d2c d3:|!
A2g f2d e2=c|A2B =c2B c2B|A2g f2d e2=c|A2d d2c d3|!
A2g f2d e2=c|A2B =c2B c2^c|d=cA A2G F2G|A2d d2c d3|]!

